Dominus_Dark_Funeral/scalable/apps/preferences-desktop-online-accounts.svg

<svg xmlns="http://www.w3.org/2000/svg" xmlns:xlink="http://www.w3.org/1999/xlink" width="48" height="48" viewBox="0 0 12.7 12.7"><defs><linearGradient id="e"><stop offset="0" stop-color="#fff" stop-opacity=".06"/><stop stop-color="#fff" offset="1"/></linearGradient><linearGradient id="d"><stop offset="0" stop-color="#6f7c91"/><stop offset=".65" stop-color="#7e8a9c"/><stop offset="1" stop-color="#dbdee3"/></linearGradient><linearGradient id="b"><stop offset="0"/><stop offset="1" stop-color="#fff" stop-opacity="0"/></linearGradient><linearGradient id="a"><stop offset="0" stop-color="#5f8dd3"/><stop offset="1" stop-color="#d7e3f4"/></linearGradient><linearGradient xlink:href="#a" id="h" x1="5.89" y1="291.6" x2="5.84" y2="286.42" gradientUnits="userSpaceOnUse" gradientTransform="translate(0 -284.3)"/><linearGradient xlink:href="#b" id="g" gradientUnits="userSpaceOnUse" x1="5.35" y1="288.62" x2="15.27" y2="297.64" gradientTransform="translate(0 -284.3)"/><linearGradient xlink:href="#a" id="c" gradientUnits="userSpaceOnUse" gradientTransform="translate(10.58 -284.3)" x1="5.89" y1="291.6" x2="5.84" y2="286.42"/><linearGradient xlink:href="#d" id="f" x1="6.61" y1="-.83" x2="6.38" y2="12.86" gradientUnits="userSpaceOnUse"/><linearGradient xlink:href="#e" id="i" gradientUnits="userSpaceOnUse" gradientTransform="translate(0 -284.3)" x1="6.03" y1="288.96" x2="5.84" y2="286.42"/></defs><path d="M6.35.1C4.81.1 3.57.38 2.66.96A3.67 3.67 0 0 0 1 4.22c0 1.91 1.54 4.47 2.01 5.2.54.85 1.13 1.61 1.65 2.16.68.7 1.21 1.03 1.69 1.03s1.01-.33 1.69-1.03a15.2 15.2 0 0 0 1.65-2.15c.47-.74 2-3.3 2-5.21 0-1.42-.57-2.54-1.65-3.25A6.75 6.75 0 0 0 6.35.1z" fill="url(#f)"/><path d="M7.87 11.72l.17-.14a15.2 15.2 0 0 0 1.65-2.15c.23-.37.74-1.2 1.18-2.17.22-.48.43-1 .58-1.52l.01-.07-3.1-3.08-5.77 3.78z" opacity=".5" fill="url(#g)"/><path d="M6.35.1C4.81.1 3.57.38 2.66.96A3.67 3.67 0 0 0 1 4.22c0 1.91 1.54 4.47 2.01 5.2.54.85 1.13 1.61 1.65 2.16.68.7 1.21 1.03 1.69 1.03s1.01-.33 1.69-1.03a15.2 15.2 0 0 0 1.65-2.15c.47-.74 2-3.3 2-5.21 0-1.42-.57-2.54-1.65-3.25A6.75 6.75 0 0 0 6.35.1zm0 .03C6.91.15 7.44.2 7.9.31a5.82 5.82 0 0 1 1.6.66 3.65 3.65 0 0 1 1.24 1.36c.14.27.25.57.32.88a4.61 4.61 0 0 1-.14 2.53c-.15.52-.36 1.04-.58 1.52-.44.97-.95 1.8-1.18 2.17a15.2 15.2 0 0 1-1.65 2.15 4.9 4.9 0 0 1-.92.78.96.96 0 0 1-.24.1.96.96 0 0 1-.24-.1 4.76 4.76 0 0 1-.92-.78 14.41 14.41 0 0 1-1.65-2.15 19.2 19.2 0 0 1-1.18-2.17c-.22-.48-.43-1-.58-1.52a4.6 4.6 0 0 1-.14-2.52 3.73 3.73 0 0 1 .84-1.64 3.65 3.65 0 0 1 1.45-1A6.83 6.83 0 0 1 6.35.13z" opacity=".2"/><path d="M7 2.16c-.75 0-1.4.35-1.72.86a1.32 1.05 0 0 0-.73-.17c-.74 0-1.35.5-1.35 1.1 0 .1.02.19.05.28a2.08 1.66 0 0 0-.9 1.37c0 .92.91 1.65 2.03 1.65h3.89c1.12 0 2.02-.73 2.02-1.65v-.13c-.07-.67-.63-1.23-1.38-1.43l.03-.3c0-.87-.87-1.58-1.94-1.58z" fill="url(#h)"/><path d="M7 2.16c-.75 0-1.4.35-1.72.86a1.32 1.05 0 0 0-.73-.17c-.74 0-1.35.5-1.35 1.1 0 .1.02.19.05.28a2.08 1.66 0 0 0-.9 1.37c0 .7.53 1.28 1.27 1.53L3.52 7c-.07-.14-.11-.3-.11-.47a1.53 1.22 0 0 1 0-.08 1.53 1.22 0 0 1 .02-.13 1.53 1.22 0 0 1 .03-.11 1.53 1.22 0 0 1 .05-.12 1.53 1.22 0 0 1 .06-.11 1.53 1.22 0 0 1 .08-.1 1.53 1.22 0 0 1 .09-.1 1.53 1.22 0 0 1 .1-.1 1.53 1.22 0 0 1 .1-.08 1.53 1.22 0 0 1 .13-.07.64.64 0 0 1 .04-.52c.05-.1.12-.19.21-.26.18-.15.43-.24.7-.24a.97.77 0 0 1 .08 0 .97.77 0 0 1 .1.02.97.77 0 0 1 .1.01.97.77 0 0 1 .09.03.97.77 0 0 1 .08.03.97.77 0 0 1 .09.04c.11-.19.3-.35.51-.46a1.65 1.65 0 0 1 1.3-.08c.17.06.33.14.45.25.13.1.24.23.31.37.07.13.11.29.11.45l-.02.22c.27.07.51.2.7.4.17.17.29.4.31.64v.1c0 .17-.04.33-.11.47l-.1.12c.75-.24 1.27-.83 1.27-1.53v-.13c-.07-.67-.63-1.23-1.38-1.43l.03-.3c0-.87-.87-1.58-1.94-1.58z" opacity=".19" fill="url(#i)"/></svg>

<?xml version="1.0" encoding="UTF-8" standalone="no"?>
<svg
   xmlns:dc="http://purl.org/dc/elements/1.1/"
   xmlns:cc="http://creativecommons.org/ns#"
   xmlns:rdf="http://www.w3.org/1999/02/22-rdf-syntax-ns#"
   xmlns:svg="http://www.w3.org/2000/svg"
   xmlns="http://www.w3.org/2000/svg"
   xmlns:xlink="http://www.w3.org/1999/xlink"
   xmlns:sodipodi="http://sodipodi.sourceforge.net/DTD/sodipodi-0.dtd"
   xmlns:inkscape="http://www.inkscape.org/namespaces/inkscape"
   width="48"
   height="48"
   viewBox="0 0 12.7 12.7"
   version="1.1"
   id="svg41"
   sodipodi:docname="preferences-desktop-online-accounts.svg"
   inkscape:version="0.92.4 (5da689c313, 2019-01-14)">
  <metadata
     id="metadata45">
    <rdf:RDF>
      <cc:Work
         rdf:about="">
        <dc:format>image/svg+xml</dc:format>
        <dc:type
           rdf:resource="http://purl.org/dc/dcmitype/StillImage" />
        <dc:title></dc:title>
      </cc:Work>
    </rdf:RDF>
  </metadata>
  <sodipodi:namedview
     pagecolor="#ffffff"
     bordercolor="#666666"
     borderopacity="1"
     objecttolerance="10"
     gridtolerance="10"
     guidetolerance="10"
     inkscape:pageopacity="0"
     inkscape:pageshadow="2"
     inkscape:window-width="1112"
     inkscape:window-height="480"
     id="namedview43"
     showgrid="false"
     inkscape:zoom="4.9166667"
     inkscape:cx="2.1355932"
     inkscape:cy="24"
     inkscape:window-x="0"
     inkscape:window-y="25"
     inkscape:window-maximized="0"
     inkscape:current-layer="svg41" />
  <defs
     id="defs29">
    <linearGradient
       id="e">
      <stop
         offset="0"
         stop-color="#fff"
         stop-opacity=".06"
         id="stop2" />
      <stop
         stop-color="#fff"
         offset="1"
         id="stop4" />
    </linearGradient>
    <linearGradient
       id="d">
      <stop
         offset="0"
         stop-color="#6f7c91"
         id="stop7" />
      <stop
         offset=".65"
         stop-color="#7e8a9c"
         id="stop9" />
      <stop
         offset="1"
         stop-color="#dbdee3"
         id="stop11" />
    </linearGradient>
    <linearGradient
       id="b">
      <stop
         offset="0"
         id="stop14" />
      <stop
         offset="1"
         stop-color="#fff"
         stop-opacity="0"
         id="stop16" />
    </linearGradient>
    <linearGradient
       id="a">
      <stop
         offset="0"
         stop-color="#5f8dd3"
         id="stop19" />
      <stop
         offset="1"
         stop-color="#d7e3f4"
         id="stop21" />
    </linearGradient>
    <linearGradient
       xlink:href="#a"
       id="h"
       x1="5.89"
       y1="291.6"
       x2="5.84"
       y2="286.42"
       gradientUnits="userSpaceOnUse"
       gradientTransform="translate(0,-284.3)" />
    <linearGradient
       xlink:href="#b"
       id="g"
       gradientUnits="userSpaceOnUse"
       x1="5.35"
       y1="288.62"
       x2="15.27"
       y2="297.64"
       gradientTransform="translate(0,-284.3)" />
    <linearGradient
       xlink:href="#a"
       id="c"
       gradientUnits="userSpaceOnUse"
       gradientTransform="translate(10.58 -284.3)"
       x1="5.89"
       y1="291.6"
       x2="5.84"
       y2="286.42" />
    <linearGradient
       xlink:href="#d"
       id="f"
       x1="6.61"
       y1="-.83"
       x2="6.38"
       y2="12.86"
       gradientUnits="userSpaceOnUse" />
    <linearGradient
       xlink:href="#e"
       id="i"
       gradientUnits="userSpaceOnUse"
       gradientTransform="translate(0,-284.3)"
       x1="6.03"
       y1="288.96"
       x2="5.84"
       y2="286.42" />
  </defs>
  <path
     d="M 6.35,0.1 C 4.81,0.1 3.57,0.38 2.66,0.96 A 3.67,3.67 0 0 0 1,4.22 c 0,1.91 1.54,4.47 2.01,5.2 0.54,0.85 1.13,1.61 1.65,2.16 0.68,0.7 1.21,1.03 1.69,1.03 0.48,0 1.01,-0.33 1.69,-1.03 A 15.2,15.2 0 0 0 9.69,9.43 c 0.47,-0.74 2,-3.3 2,-5.21 0,-1.42 -0.57,-2.54 -1.65,-3.25 A 6.75,6.75 0 0 0 6.35,0.1 Z"
     id="path31"
     style="fill:url(#f)"
     inkscape:connector-curvature="0" />
  <path
     d="M 7.87,11.72 8.04,11.58 A 15.2,15.2 0 0 0 9.69,9.43 c 0.23,-0.37 0.74,-1.2 1.18,-2.17 0.22,-0.48 0.43,-1 0.58,-1.52 L 11.46,5.67 8.36,2.59 2.59,6.37 Z"
     id="path33"
     style="opacity:0.5;fill:url(#g)"
     inkscape:connector-curvature="0" />
  <path
     d="M 6.35,0.1 C 4.81,0.1 3.57,0.38 2.66,0.96 A 3.67,3.67 0 0 0 1,4.22 c 0,1.91 1.54,4.47 2.01,5.2 0.54,0.85 1.13,1.61 1.65,2.16 0.68,0.7 1.21,1.03 1.69,1.03 0.48,0 1.01,-0.33 1.69,-1.03 A 15.2,15.2 0 0 0 9.69,9.43 c 0.47,-0.74 2,-3.3 2,-5.21 0,-1.42 -0.57,-2.54 -1.65,-3.25 A 6.75,6.75 0 0 0 6.35,0.1 Z m 0,0.03 C 6.91,0.15 7.44,0.2 7.9,0.31 a 5.82,5.82 0 0 1 1.6,0.66 3.65,3.65 0 0 1 1.24,1.36 c 0.14,0.27 0.25,0.57 0.32,0.88 A 4.61,4.61 0 0 1 10.92,5.74 C 10.77,6.26 10.56,6.78 10.34,7.26 9.9,8.23 9.39,9.06 9.16,9.43 A 15.2,15.2 0 0 1 7.51,11.58 4.9,4.9 0 0 1 6.59,12.36 0.96,0.96 0 0 1 6.35,12.46 0.96,0.96 0 0 1 6.11,12.36 4.76,4.76 0 0 1 5.19,11.58 14.41,14.41 0 0 1 3.54,9.43 19.2,19.2 0 0 1 2.36,7.26 C 2.14,6.78 1.93,6.26 1.78,5.74 A 4.6,4.6 0 0 1 1.64,3.22 3.73,3.73 0 0 1 2.48,1.58 3.65,3.65 0 0 1 3.93,0.58 6.83,6.83 0 0 1 6.35,0.13 Z"
     id="path35"
     inkscape:connector-curvature="0"
     style="opacity:0.2" />
  <path
     d="M 7,2.16 C 6.25,2.16 5.6,2.51 5.28,3.02 A 1.32,1.05 0 0 0 4.55,2.85 c -0.74,0 -1.35,0.5 -1.35,1.1 0,0.1 0.02,0.19 0.05,0.28 A 2.08,1.66 0 0 0 2.35,5.6 c 0,0.92 0.91,1.65 2.03,1.65 h 3.89 c 1.12,0 2.02,-0.73 2.02,-1.65 V 5.47 C 10.22,4.8 9.66,4.24 8.91,4.04 L 8.94,3.74 C 8.94,2.87 8.07,2.16 7,2.16 Z"
     id="path37"
     style="fill:url(#h)"
     inkscape:connector-curvature="0" />
  <path
     d="M 7,2.16 C 6.25,2.16 5.6,2.51 5.28,3.02 A 1.32,1.05 0 0 0 4.55,2.85 c -0.74,0 -1.35,0.5 -1.35,1.1 0,0.1 0.02,0.19 0.05,0.28 A 2.08,1.66 0 0 0 2.35,5.6 c 0,0.7 0.53,1.28 1.27,1.53 L 3.52,7 C 3.45,6.86 3.41,6.7 3.41,6.53 A 1.53,1.22 0 0 1 3.41,6.45 1.53,1.22 0 0 1 3.43,6.32 1.53,1.22 0 0 1 3.46,6.21 1.53,1.22 0 0 1 3.51,6.09 1.53,1.22 0 0 1 3.57,5.98 1.53,1.22 0 0 1 3.65,5.88 1.53,1.22 0 0 1 3.74,5.78 1.53,1.22 0 0 1 3.84,5.68 1.53,1.22 0 0 1 3.94,5.6 1.53,1.22 0 0 1 4.07,5.53 0.64,0.64 0 0 1 4.11,5.01 C 4.16,4.91 4.23,4.82 4.32,4.75 4.5,4.6 4.75,4.51 5.02,4.51 a 0.97,0.77 0 0 1 0.08,0 0.97,0.77 0 0 1 0.1,0.02 0.97,0.77 0 0 1 0.1,0.01 0.97,0.77 0 0 1 0.09,0.03 0.97,0.77 0 0 1 0.08,0.03 0.97,0.77 0 0 1 0.09,0.04 C 5.67,4.45 5.86,4.29 6.07,4.18 A 1.65,1.65 0 0 1 7.37,4.1 C 7.54,4.16 7.7,4.24 7.82,4.35 7.95,4.45 8.06,4.58 8.13,4.72 8.2,4.85 8.24,5.01 8.24,5.17 L 8.22,5.39 c 0.27,0.07 0.51,0.2 0.7,0.4 0.17,0.17 0.29,0.4 0.31,0.64 v 0.1 C 9.23,6.7 9.19,6.86 9.12,7 L 9.02,7.12 C 9.77,6.88 10.29,6.29 10.29,5.59 V 5.46 C 10.22,4.79 9.66,4.23 8.91,4.03 L 8.94,3.73 C 8.94,2.86 8.07,2.15 7,2.15 Z"
     id="path39"
     style="opacity:0.18999999;fill:url(#i)"
     inkscape:connector-curvature="0" />
</svg>
